X: 8522
T: Creel Of Turf, The
R: jig
M: 6/8
K: Eminor
|~E3 BAG|FAF AFD|EGB EGB|AGF E2D|
EzB BAG|~F2D AFD|dzd ~B3|AGF E2D|
~E2B BAG|~F2D AFD|EGB EGB|AGF E2D|
~E2B BAG|~F2D AFD|dcd ~B3|AGF e2d|
BGd efg|fdB AFD|Bzd efg|faf gfe|
Bzb bge|dcB AFD|EGB EGB|AGF Ezd|
BGd efg|fdB AFD|Bzd efg|(3fgaf gfe|
B2b bge|dcB AFD|EGB EGB|AGF E3|

